src/assets/outline/MessageQuestion.svg

<svg width="24" height="24" viewBox="0 0 24 24"  xmlns="http://www.w3.org/2000/svg">
<path d="M8 22.3194C7.72 22.3194 7.42998 22.2494 7.16998 22.1094C6.59998 21.8094 6.25 21.2094 6.25 20.5694V19.1495C3.23 18.8395 1.25 16.6194 1.25 13.4394V7.43945C1.25 3.99945 3.56 1.68945 7 1.68945H17C20.44 1.68945 22.75 3.99945 22.75 7.43945V13.4394C22.75 16.8794 20.44 19.1894 17 19.1894H13.23L8.96997 22.0295C8.67997 22.2195 8.34 22.3194 8 22.3194ZM7 3.17944C4.42 3.17944 2.75 4.84944 2.75 7.42944V13.4295C2.75 16.0095 4.42 17.6795 7 17.6795C7.41 17.6795 7.75 18.0195 7.75 18.4295V20.5595C7.75 20.6895 7.83 20.7495 7.88 20.7795C7.93001 20.8095 8.03001 20.8395 8.14001 20.7695L12.59 17.8095C12.71 17.7295 12.86 17.6795 13.01 17.6795H17.01C19.59 17.6795 21.26 16.0095 21.26 13.4295V7.42944C21.26 4.84944 19.59 3.17944 17.01 3.17944H7Z" />
<path d="M11.9998 12.1104C11.5898 12.1104 11.2498 11.7704 11.2498 11.3604V11.1504C11.2498 9.99039 12.0998 9.42038 12.4198 9.20038C12.7898 8.95038 12.9098 8.78039 12.9098 8.52039C12.9098 8.02039 12.4998 7.61035 11.9998 7.61035C11.4998 7.61035 11.0898 8.02039 11.0898 8.52039C11.0898 8.93039 10.7498 9.27039 10.3398 9.27039C9.92984 9.27039 9.58984 8.93039 9.58984 8.52039C9.58984 7.19039 10.6698 6.11035 11.9998 6.11035C13.3298 6.11035 14.4098 7.19039 14.4098 8.52039C14.4098 9.66039 13.5698 10.2304 13.2598 10.4404C12.8698 10.7004 12.7498 10.8704 12.7498 11.1504V11.3604C12.7498 11.7804 12.4098 12.1104 11.9998 12.1104Z" />
<path d="M12 14.5996C11.58 14.5996 11.25 14.2596 11.25 13.8496C11.25 13.4396 11.59 13.0996 12 13.0996C12.41 13.0996 12.75 13.4396 12.75 13.8496C12.75 14.2596 12.42 14.5996 12 14.5996Z" />
</svg>

<?xml version="1.0" encoding="UTF-8"?>
<svg width="24" height="24" viewBox="0 0 24 24" xmlns="http://www.w3.org/2000/svg">
 <path d="m8 22.319c-0.28 0-0.57002-0.07-0.83002-0.21-0.57-0.3-0.91998-0.9-0.91998-1.54v-1.4199c-3.02-0.31-5-2.5301-5-5.7101v-6c0-3.44 2.31-5.75 5.75-5.75h10c3.44 0 5.75 2.31 5.75 5.75v6c0 3.44-2.31 5.75-5.75 5.75h-3.77l-4.26 2.8401c-0.29 0.19-0.62997 0.2899-0.96997 0.2899zm-1-19.14c-2.58 0-4.25 1.67-4.25 4.25v6.0001c0 2.58 1.67 4.25 4.25 4.25 0.41 0 0.75 0.34 0.75 0.75v2.13c0 0.13 0.08 0.19 0.13 0.22 0.05001 0.03 0.15001 0.06 0.26001-0.01l4.45-2.96c0.12-0.08 0.27-0.13 0.42-0.13h4c2.58 0 4.25-1.67 4.25-4.25v-6.0001c0-2.58-1.67-4.25-4.25-4.25h-10.01z"/>
 <path d="m12 12.11c-0.41 0-0.75-0.34-0.75-0.75v-0.21c0-1.16 0.85-1.73 1.17-1.95 0.37-0.25 0.49-0.41999 0.49-0.67999 0-0.5-0.41-0.91004-0.91-0.91004s-0.91 0.41004-0.91 0.91004c0 0.41-0.34 0.75-0.75 0.75-0.40996 0-0.74996-0.34-0.74996-0.75 0-1.33 1.08-2.41 2.41-2.41s2.41 1.08 2.41 2.41c0 1.14-0.84 1.71-1.15 1.92-0.39 0.26-0.51 0.43-0.51 0.71v0.21c0 0.42-0.34 0.75-0.75 0.75z"/>
 <path d="m12 14.6c-0.42 0-0.75-0.34-0.75-0.75s0.34-0.75 0.75-0.75 0.75 0.34 0.75 0.75-0.33 0.75-0.75 0.75z"/>
</svg>
